!!!SOCIAL_FUNCTION:	songs of the sun dance
!!!PDT:	1918

Specific Region: Dakotas, Minnesota, Montana, Nebraska
!!!REG: Dakotas and Montana
!!!LING_GROUP: Siouan
!!!LANG: Tone
!!!OTL@ENG: Song of the Braves' dance
!!!ONM: No. 6
**kern
*Imale
*clefF4
*k[b-e-a-]
*M2/4
*>[A,B,B]
*>norep[A,B]
*>A
*MM80
4g
8g
24f
24g
24f
=2
4g
8g
24f
24g
24f
=3
8e-
[8e-
4e-_
=4
4e-]
4c
=5
2e-
=6
12e-
[12e-
12e-]
12e-
12c
12B
=7
[2c
=8
4c]
12e-
12c
12B
=9||
*M3/4
4.c
8G
4G
=10!|:
*M2/4
*>B
2e-
=11
12e-
[12e-
12e-]
12e-
12c
12c
=12||
*M3/4
2c
8B-
8G
=13||
*M2/4
2c
=14
12c
[12c
12c]
8c
24B-
24c
24B-
=15
8G
[8G
4G_
=16
4G]
8F
8E-
=17
2G
=18
12G
[12G
12G]
8G
24F
24G
24F
=19
8E-
8E-
[4E-
=20
4E-]
4C
=21
8.E-
16E-
8E-
8C
=22
12E-
12C
12C
4C
=23
2C
=24
16E-
8.C
12C
12C
12C
=25
2C
==:|!
*-
!!!CNT: Native American -- Sioux
!!!MRD: 1911/07//-1914///
!!!OCL: Frances Densmore
!!!YOR1: Teton Sioux Music, Bulletin 61,
!!!YOR2: Bureau of American Ethnology, Smithsonian Institution
!!!PPR: Government Printing Office
!!!PPP: Washington, D.C.
!!!PDT: 1918///
!!!ENC: Craig Stuart Sapp
!!!END: 2002/03/25/
!!!EEV: 2002/03/31/
!!!AGN: Ceremonial Song/Song of the Sun Dance
!!!MPN@@SIO: Zintka'la-lu'ta
!!!MPN@ENG: Red Bird
!!!TXO: Teton Sioux
!!!MLC: Standing Rock Reservation, South Dakota, United States of America
!!!ARL: 45.9/-100.7#
!!!catalog: Catalogue No. 498
!!!PPG: 107
!!!EFL: 6/245
!!!VTS: 1867539019
